!!!ONB: MCCC : IJB0045_05 : Extracted Monophonic Melody
!!!COM: Brahms, Johannes
!!!OPR: 6 Klavierstücke
!!!OMV: 5
!!!SCT: Op.118
!!!ODT: 1893///
**kern
*staff1
*clefG2
*k[b-]
*F:
*M6/4
4ff
4ee[
4ee]
4dd
4cc[
=2
4cc]
2b-
4b-
2a
=3
4g
4f[
4f]
8e[
8e]
2f
=4
4cc
4cc
4a
4a
4e
4e
=5
4e
4ff
8ee
8ee[
4ee]
4dd
4cc[
=6
4cc]
2b-
8a[
8a]
2a
=7
4a
2a
4g
4f[
4f]
=8
8e
8d
4c#
4e
4e
4a
4a
=9
4cc
4aa
8gg[
8gg]
4aa
4ff
8ee[
8ee]
=10
4ff
4dd
4ff
8ee
8dd
4ff
4cc
=11
4b-
4a
4dd
8cc
8b-
4a
4dd
=12
8ee
8gg
4cc
4a
2a
4e
=13
4c
4ff
4ee[
4ee]
4dd
4cc[
=14
4cc]
4b-
4b-
4b-
2b-
=15
4a
4a[
4a]
8g[
8g]
4f[
4f]
=16
8e
8d
4d
4f
2f
4a
=17
*M4/4
2a
2r
=18
2r
2b
=19
8g
8a
8b
16a
16dd
4dd
4b
=20
8g
8a
8b
8a
8ff#
32a-
32g#
16a
16g#
16a
16g#
16a
=21
16g#
16a
32f#
32g#
16a
16b
16cc#
16dd
16ee
16ff#
16aa-
32f#
16.dd
4r
=22
2r
2b
=23
8g
8a
8b
16a
16dd
4dd
4g
=24
8e
8d
8e
8d
8f#
8A-
8c#
8B
=25
8e
8e
8a
16g#
16a
16g#
16a
16a
16cc#
8ee
16ff#
16ee
=26
8ff#
16dd
16cc#[
8cc#]
16a
16g
8a
8b
16g
16f#
16e
16d
=27
8g
16a
16b[
8b]
16b
16cc#
8dd
8b
16g
16f#
16e
16d
=28
8g
16a
16b[
8b]
16cc#
16dd
8ff#
32a-
32g#
16a
16g#
16a
16g#
16a
=29
16g#
16a
32f#
32g#
16a
16b
16cc#
16dd
16ee
16ff#
16gg#
12aa
24cc#
8ee
12a
24ff#
=30
8cc#
12dd
24f#
8a
12d
24cc#
8f#
12b
24e
8g
12c#
24e
=31
8g
16d
16a[
8a]
8b
16a
16dd
12g
24c#
8e
12B
24c#
=32
8d
16A
16e[
8e]
8g
16f#
16a
16A-
16c#
16c#
16e
8e
=33
2d[
8d]
8a
4r
=34
2r
2b
=35
8g
16a
16b
16a
16b
16a
16b
16cc#
8.dd
4b
=36
8g
16a
16b
16a
32b
32cc#
32dd
32ee
32ff#
32aa-
8.aa-
16aa
16aa-
16aa
16aa-
16aa
=37
16aa-
16aa
16aa-
16aa
16aa-
16aa
16aa-
16aa
16gg#
16aa
32ff#
32aa-
32f#
32dd
8aa
32g
32cc#
16ee[
=38
8ee]
32d
32a
16dd[
8dd]
32A
32c#
16a[
8a]
32G
32B
16b[
8b]
32E
32c#
16g[
=39
8g]
32A
32c#
16a[
8a]
32A
32d
48a
24dd[
8dd]
32c#
32g
16ee[
8ee]
32G
32c#
48e
24a[
=40
8a]
32A
32d
48a
24dd[
8dd]
32a
32dd
48aa
24ddd
4ddd
4c[
=41
4.c]
16d
32e
32f#
4g
4g[
=42
2g]
2gg[
=43
4.gg]
16aa
32bb
32ccc
4ddd
4ddd[
=44
2.ddd]
4r
=45
1r
=46
2r
8r
8d
4d
=47
2c#
2r
=48
8r
4.f
2e
=49
1r
=50
4r
8r
16r
16ff
4ff
4ee[
=51
8ee]
4.dd
4cc
4cc
=52
4.b-
16b-
16b-
4b-
8a
8a[
=53
8a]
4.g
8f[
4f]
8e[
=54
4e]
8f
8f[
8f]
8cc[
8cc]
8cc[
=55
8cc]
4a
8a[
8a]
4e
8e[
=56
8e]
4B-
8aa[
8aa]
8gg
8aa
8ccc
=57
8aa
8gg
8ff
8ee
8ff
8aa
8ff
8ee
=58
8dd
8gg
8ff
8ff
8ee
4bb-
8aa[
=59
8aa]
4gg
8ff[
8ff]
4cc
8dd
=60
8ee
4ff
8cc[
8cc]
16b-
16b-
4a
=61
8a
4cc
16ee-
16ee-
4ee-
8dd
8dd[
=62
8dd]
8f[
4f]
8f
4a
8a[
=63
8a]
4.cc
4ccc
4fff
=64
1fff[
=65
4fff]
4r
2r
==
*-
